src/img/seguroderenta.svg

<svg width="68" height="68" viewBox="0 0 68 68" fill="none" xmlns="http://www.w3.org/2000/svg">
<path d="M14 65.7969C14 66.3177 13.7917 66.7344 13.375 67.0469C13.0104 67.3594 12.5938 67.4896 12.125 67.4375C8.89583 66.9688 6.16146 65.4844 3.92188 62.9844C1.73438 60.4844 0.640625 57.5677 0.640625 54.2344V13.9219C0.640625 10.5365 1.73438 7.59375 3.92188 5.09375C6.16146 2.59375 8.89583 1.13542 12.125 0.71875C12.5938 0.614583 13.0104 0.744792 13.375 1.10938C13.7917 1.42188 14 1.83854 14 2.35938C14 2.77604 13.8438 3.14062 13.5312 3.45312C13.2708 3.76562 12.9583 3.94792 12.5938 4C11.5 4.15625 10.4844 4.46875 9.54688 4.9375C8.60938 5.40625 7.75 6.03125 6.96875 6.8125C5.97917 7.75 5.22396 8.84375 4.70312 10.0938C4.23438 11.2917 4 12.5417 4 13.8438V54.2344C4 55.5365 4.23438 56.8125 4.70312 58.0625C5.22396 59.2604 5.97917 60.3281 6.96875 61.2656C7.75 62.0469 8.60938 62.6979 9.54688 63.2188C10.4844 63.6875 11.5 63.974 12.5938 64.0781C12.9583 64.1823 13.2708 64.3906 13.5312 64.7031C13.8438 65.0156 14 65.3802 14 65.7969ZM55.875 0.71875C55.4062 0.614583 54.9635 0.744792 54.5469 1.10938C54.1823 1.42188 54 1.83854 54 2.35938C54 2.77604 54.1302 3.14062 54.3906 3.45312C54.7031 3.76562 55.0417 3.94792 55.4062 4C56.5 4.15625 57.5156 4.46875 58.4531 4.9375C59.3906 5.40625 60.25 6.03125 61.0312 6.8125C62.0208 7.75 62.75 8.84375 63.2188 10.0938C63.7396 11.2917 64 12.5417 64 13.8438V54C64 55.3542 63.7396 56.6302 63.2188 57.8281C62.75 59.026 62.0208 60.0938 61.0312 61.0312C60.25 61.8125 59.3906 62.4635 58.4531 62.9844C57.5156 63.4531 56.5 63.7656 55.4062 63.9219C55.0417 63.974 54.7031 64.1562 54.3906 64.4688C54.1302 64.7812 54 65.1458 54 65.5625C54 66.0312 54.1823 66.4219 54.5469 66.7344C54.9635 67.099 55.4062 67.2552 55.875 67.2031C59.1042 66.7344 61.8125 65.25 64 62.75C66.2396 60.25 67.3594 57.3333 67.3594 54V13.9219C67.3594 10.5365 66.2396 7.59375 64 5.09375C61.8125 2.59375 59.1042 1.13542 55.875 0.71875ZM54 57.3594H37.3594C36.4219 57.3594 35.6146 57.0469 34.9375 56.4219C34.3125 55.7448 34 54.9375 34 54V14C34 13.0625 34.3125 12.2812 34.9375 11.6562C35.6146 10.9792 36.4219 10.6406 37.3594 10.6406H54C54.9375 10.6406 55.7188 10.9792 56.3438 11.6562C57.0208 12.2812 57.3594 13.0625 57.3594 14V54C57.3594 54.9375 57.0208 55.7448 56.3438 56.4219C55.7188 57.0469 54.9375 57.3594 54 57.3594ZM54 54V14H37.3594V54H54ZM30.6406 47.5156V39.4688L22.2031 20.9531L30.6406 17.0469V14C30.6406 13.8958 30.6406 13.7917 30.6406 13.6875C30.6406 13.5833 30.6667 13.4792 30.7188 13.375L20.7969 17.9844C19.9635 18.349 19.3646 18.974 19 19.8594C18.6875 20.6927 18.7396 21.526 19.1562 22.3594L30.6406 47.5156ZM14 46.7344L19.625 31.5L18.1406 28.2188C17.8281 28.4271 17.5417 28.6875 17.2812 29C17.0208 29.2604 16.8125 29.5729 16.6562 29.9375L10.875 45.5625C10.5625 46.4479 10.5885 47.3073 10.9531 48.1406C11.3698 48.974 11.9948 49.5469 12.8281 49.8594L31.2656 56.7344L29.2344 52.4375L14 46.7344Z" fill="#89837F"/>
</svg>

<svg width="68" height="68" fill="none" xmlns="http://www.w3.org/2000/svg"><path d="M14 65.797c0 .52-.208.937-.625 1.25a1.58 1.58 0 01-1.25.39c-3.23-.468-5.964-1.953-8.203-4.453-2.188-2.5-3.281-5.416-3.281-8.75V13.922c0-3.386 1.093-6.328 3.28-8.828 2.24-2.5 4.975-3.959 8.204-4.375.469-.104.885.026 1.25.39.417.313.625.73.625 1.25 0 .417-.156.782-.469 1.094-.26.313-.573.495-.937.547a9.892 9.892 0 00-3.047.938 9.892 9.892 0 00-2.578 1.875 9.514 9.514 0 00-2.266 3.28A10.2 10.2 0 004 13.844v40.391c0 1.302.234 2.578.703 3.828a9.724 9.724 0 002.266 3.204 11.63 11.63 0 002.578 1.953 8.566 8.566 0 003.047.86c.364.103.677.312.937.624.313.313.469.677.469 1.094zM55.875.719c-.469-.104-.911.026-1.328.39-.365.313-.547.73-.547 1.25 0 .417.13.782.39 1.094.313.313.652.495 1.016.547a9.892 9.892 0 013.047.938 9.891 9.891 0 012.578 1.875 8.658 8.658 0 012.188 3.28 9.309 9.309 0 01.781 3.75V54c0 1.354-.26 2.63-.781 3.828-.469 1.198-1.198 2.266-2.188 3.203a11.605 11.605 0 01-2.578 1.953 9.894 9.894 0 01-3.047.938c-.364.052-.703.234-1.015.547-.26.312-.391.677-.391 1.094 0 .468.182.859.547 1.171.417.365.86.521 1.328.47 3.23-.47 5.938-1.954 8.125-4.454 2.24-2.5 3.36-5.417 3.36-8.75V13.922c0-3.386-1.12-6.328-3.36-8.828-2.188-2.5-4.896-3.959-8.125-4.375zM54 57.359H37.36c-.938 0-1.745-.312-2.422-.937C34.312 55.745 34 54.938 34 54V14c0-.938.313-1.719.938-2.344.677-.677 1.484-1.015 2.421-1.015H54c.938 0 1.719.338 2.344 1.015.677.625 1.015 1.406 1.015 2.344v40c0 .938-.338 1.745-1.015 2.422-.625.625-1.407.937-2.344.937zM54 54V14H37.36v40H54zm-23.36-6.484v-8.047l-8.437-18.516 8.438-3.906v-3.36c0-.104.026-.208.078-.312l-9.922 4.61c-.834.364-1.432.989-1.797 1.874-.313.834-.26 1.667.156 2.5l11.485 25.157zM14 46.734L19.625 31.5l-1.484-3.281a4.03 4.03 0 00-.86.781c-.26.26-.468.573-.625.938l-5.781 15.625c-.313.885-.287 1.744.078 2.578.417.833 1.042 1.406 1.875 1.718l18.438 6.875-2.032-4.297L14 46.734z" fill="#89837F"/></svg>
